fs/poll_20_filled.svg

<svg viewBox="0 0 20 20" fill="none" xmlns="http://www.w3.org/2000/svg" height="1em" width="1em">
  <path d="M10 2C8.89543 2 8 2.89543 8 4V16C8 17.1046 8.89543 18 10 18C11.1046 18 12 17.1046 12 16V4C12 2.89543 11.1046 2 10 2ZM4 10C2.89543 10 2 10.8954 2 12V16C2 17.1046 2.89543 18 4 18C5.10457 18 6 17.1046 6 16V12C6 10.8954 5.10457 10 4 10ZM16 6C14.8954 6 14 6.89543 14 8V16C14 17.1046 14.8954 18 16 18C17.1046 18 18 17.1046 18 16V8C18 6.89543 17.1046 6 16 6Z" fill="#212121"/>
</svg>

<svg viewBox="0 0 20 20" fill="none" xmlns="http://www.w3.org/2000/svg" height="1em" width="1em">
  <path d="M10 2a2 2 0 0 0-2 2v12a2 2 0 1 0 4 0V4a2 2 0 0 0-2-2Zm-6 8a2 2 0 0 0-2 2v4a2 2 0 1 0 4 0v-4a2 2 0 0 0-2-2Zm12-4a2 2 0 0 0-2 2v8a2 2 0 1 0 4 0V8a2 2 0 0 0-2-2Z" fill="#212121"/>
</svg>
